assets/img/braze_icons/link-external-01-alt.svg

<svg fill="none" height="24" viewBox="0 0 24 24" width="24" xmlns="http://www.w3.org/2000/svg"><g fill="#801ed7"><path d="m14 3c0-.55228.4477-1 1-1h6c.5523 0 1 .44771 1 1v6c0 .55228-.4477 1-1 1s-1-.44771-1-1v-3.58578l-6.2929 6.29288c-.3905.3905-1.0237.3905-1.4142 0s-.3905-1.0237 0-1.4142l6.2929-6.2929h-3.5858c-.5523 0-1-.44772-1-1z"/><path d="m11.9544 7.80292c.3961-.39602.5941-.59403.6683-.82236.0652-.20084.0652-.41719 0-.61803-.0742-.22833-.2722-.42634-.6683-.82236l-.7787-.7787-.036-.03615c-.1339-.13465-.3026-.3042-.5089-.43065-.179-.10966-.374-.19047-.5781-.23946-.23535-.0565-.47449-.05586-.6644-.05536l-.05104.0001h-1.57856c-.80497-.00002-1.46933-.00003-2.01052.04419-.5621.04593-1.0788.14449-1.56414.39178-.75265.38349-1.36457.99542-1.74806 1.74806-.2473.48534-.34586 1.00204-.39178 1.56414-.04422.54119-.04421 1.20554-.0442 2.0105v6.48258c-.00001.805-.00002 1.4694.0442 2.0106.04592.5621.14448 1.0788.39178 1.5641.38349.7527.99541 1.3646 1.74806 1.7481.48534.2473 1.00204.3458 1.56414.3918.54119.0442 1.20554.0442 2.0105.0441h6.48262c.805.0001 1.4693.0001 2.0105-.0441.5621-.046 1.0788-.1445 1.5642-.3918.7526-.3835 1.3645-.9954 1.748-1.7481.2473-.4853.3459-1.002.3918-1.5641.0442-.5412.0442-1.2056.0442-2.0105v-1.5786l.0001-.051c.0005-.19.0011-.4291-.0554-.6644-.049-.2041-.1298-.3992-.2394-.5781-.1265-.2064-.296-.375-.4307-.509l-.0361-.036-.7787-.7786c-.396-.3961-.594-.5941-.8223-.6683-.2009-.0652-.4172-.0652-.6181 0-.2283.0742-.4263.2722-.8223.6683l-1.0758 1.0757c-1.1716 1.1716-3.071 1.1716-4.2426 0-1.17159-1.1716-1.17159-3.071 0-4.24262z"/></g></svg>

<svg width="24" height="24" viewBox="0 0 24 24" fill="none" xmlns="http://www.w3.org/2000/svg">
<path d="M14 3C14 2.44772 14.4477 2 15 2H21C21.5523 2 22 2.44771 22 3L22 9C22 9.55228 21.5523 10 21 10C20.4477 10 20 9.55229 20 9L20 5.41422L13.7071 11.7071C13.3166 12.0976 12.6834 12.0976 12.2929 11.7071C11.9024 11.3166 11.9024 10.6834 12.2929 10.2929L18.5858 4H15C14.4477 4 14 3.55228 14 3Z" fill="#801ED7"/>
<path d="M11.9544 7.80292C12.3505 7.4069 12.5485 7.20889 12.6227 6.98056C12.6879 6.77972 12.6879 6.56337 12.6227 6.36253C12.5485 6.1342 12.3505 5.93619 11.9544 5.54017L11.1757 4.76147L11.1397 4.72532C11.0058 4.59067 10.8371 4.42112 10.6308 4.29467C10.4518 4.18501 10.2568 4.1042 10.0527 4.05521C9.81735 3.99871 9.57821 3.99935 9.3883 3.99985L9.33726 3.99995L7.7587 3.99995C6.95373 3.99993 6.28937 3.99992 5.74818 4.04414C5.18608 4.09007 4.66938 4.18863 4.18404 4.43592C3.43139 4.81941 2.81947 5.43134 2.43598 6.18398C2.18868 6.66932 2.09012 7.18602 2.0442 7.74812C1.99998 8.28931 1.99999 8.95366 2 9.75862V16.2412C1.99999 17.0462 1.99998 17.7106 2.0442 18.2518C2.09012 18.8139 2.18868 19.3306 2.43598 19.8159C2.81947 20.5686 3.43139 21.1805 4.18404 21.564C4.66938 21.8113 5.18608 21.9098 5.74818 21.9558C6.28937 22 6.95372 22 7.75868 21.9999H14.2413C15.0463 22 15.7106 22 16.2518 21.9558C16.8139 21.9098 17.3306 21.8113 17.816 21.564C18.5686 21.1805 19.1805 20.5686 19.564 19.8159C19.8113 19.3306 19.9099 18.8139 19.9558 18.2518C20 17.7106 20 17.0462 20 16.2413V14.6627L20.0001 14.6117C20.0006 14.4217 20.0012 14.1826 19.9447 13.9473C19.8957 13.7432 19.8149 13.5481 19.7053 13.3692C19.5788 13.1628 19.4093 12.9942 19.2746 12.8602L19.2385 12.8242L18.4598 12.0456C18.0638 11.6495 17.8658 11.4515 17.6375 11.3773C17.4366 11.3121 17.2203 11.3121 17.0194 11.3773C16.7911 11.4515 16.5931 11.6495 16.1971 12.0456L15.1213 13.1213C13.9497 14.2929 12.0503 14.2929 10.8787 13.1213C9.70711 11.9497 9.70711 10.0503 10.8787 8.87868L11.9544 7.80292Z" fill="#801ED7"/>
</svg>
